X:2178
T:Gyn ennym (No title)
N:(Like Irish tune: St. Patrick's Day in the morning)
C:F Stowell
C:Traditional
O:Isle of Man
Z:Clague collection
B:Kiaull Vannin #178 
L:1/8
M:6/8 
Q:160 
K:G 
D|G2G GBd|d2e dBG|A2A AGA|BAG E2D|G2G GBd|d2e dBG|ABc AGA|G3 G2d|| 
e2e e2d|e2f g2e|d2B BAG|BAG E2D|G2G GBd|d2e dBG|ABc AGA|G3 G2|| 

